src/activities/smallnumbers/resource/dice5.svg

<?xml version="1.0" encoding="UTF-8" standalone="no"?>
<!-- Created with Inkscape (http://www.inkscape.org/) -->

<svg
   xmlns:dc="http://purl.org/dc/elements/1.1/"
   xmlns:cc="http://creativecommons.org/ns#"
   xmlns:rdf="http://www.w3.org/1999/02/22-rdf-syntax-ns#"
   xmlns:svg="http://www.w3.org/2000/svg"
   xmlns="http://www.w3.org/2000/svg"
   xmlns:sodipodi="http://sodipodi.sourceforge.net/DTD/sodipodi-0.dtd"
   xmlns:inkscape="http://www.inkscape.org/namespaces/inkscape"
   width="97.366165"
   height="98.644226"
   id="svg5070"
   sodipodi:version="0.32"
   inkscape:version="0.91 r13725"
   sodipodi:docname="dice5.svg"
   inkscape:export-filename="/home/franck/Gcompris/gartoon/level5.png"
   inkscape:export-xdpi="8.5762272"
   inkscape:export-ydpi="8.5762272"
   inkscape:output_extension="org.inkscape.output.svg.inkscape"
   version="1.0">
  <defs
     id="defs3" />
  <sodipodi:namedview
     inkscape:document-units="mm"
     id="base"
     pagecolor="#ffffff"
     bordercolor="#666666"
     borderopacity="1.0"
     inkscape:pageopacity="0.0"
     inkscape:pageshadow="2"
     inkscape:zoom="1.7949557"
     inkscape:cx="50.780948"
     inkscape:cy="54.391011"
     inkscape:current-layer="g16467"
     inkscape:window-width="936"
     inkscape:window-height="1053"
     inkscape:window-x="940"
     inkscape:window-y="0"
     showgrid="false"
     units="mm"
     fit-margin-top="0"
     fit-margin-left="0"
     fit-margin-right="0"
     fit-margin-bottom="0"
     inkscape:window-maximized="0" />
  <metadata
     id="metadata4">
    <rdf:RDF>
      <cc:Work
         rdf:about="">
        <dc:format>image/svg+xml</dc:format>
        <dc:type
           rdf:resource="http://purl.org/dc/dcmitype/StillImage" />
        <dc:title></dc:title>
        <dc:date>2015</dc:date>
        <dc:creator>
          <cc:Agent>
            <dc:title>Timothée Giet</dc:title>
          </cc:Agent>
        </dc:creator>
        <cc:license
           rdf:resource="http://creativecommons.org/licenses/by-sa/4.0/" />
      </cc:Work>
      <cc:License
         rdf:about="http://creativecommons.org/licenses/by-sa/4.0/">
        <cc:permits
           rdf:resource="http://creativecommons.org/ns#Reproduction" />
        <cc:permits
           rdf:resource="http://creativecommons.org/ns#Distribution" />
        <cc:requires
           rdf:resource="http://creativecommons.org/ns#Notice" />
        <cc:requires
           rdf:resource="http://creativecommons.org/ns#Attribution" />
        <cc:permits
           rdf:resource="http://creativecommons.org/ns#DerivativeWorks" />
        <cc:requires
           rdf:resource="http://creativecommons.org/ns#ShareAlike" />
      </cc:License>
    </rdf:RDF>
  </metadata>
  <g
     inkscape:label="Layer 1"
     inkscape:groupmode="layer"
     id="layer1"
     transform="translate(-12.955209,-14.642093)">
    <g
       id="g16467"
       transform="matrix(0.143061,0,0,0.1477199,12.284904,-21.766011)">
      <path
         style="fill:#991919;fill-opacity:1;fill-rule:evenodd;stroke:none;stroke-width:0.14504871pt;stroke-linecap:butt;stroke-linejoin:miter;stroke-opacity:1"
         d="m 48.448634,426.26489 c 0,0 81.760376,-99.79321 158.393896,-144.96512 47.56054,-28.03473 111.49816,-39.75385 167.22367,-31.75426 100.51752,14.42962 242.38885,69.24117 242.38885,69.24117 39.87194,11.04495 73.04989,34.12615 67.57705,90.61883 -9.37691,96.7895 -28.77542,168.66712 -56.61431,257.8971 -11.85895,38.01061 -27.63802,78.67454 -39.11423,107.00643 -13.39643,33.07239 -30.89109,62.43657 -41.87381,85.89725 -16.86766,36.03164 -64.41648,53.88496 -106.33457,53.41752 C 378.18983,912.93352 258.60753,881.60064 164.11461,836.01395 121.5301,815.46968 91.743725,790.05059 79.275736,756.42346 50.951329,680.03038 5.3819629,615.86311 5.3191785,532.24449 5.2848784,486.55454 23.292945,459.39977 48.448634,426.26489 Z"
         id="rect5098"
         sodipodi:nodetypes="csscssssssssc"
         inkscape:connector-curvature="0" />
      <path
         style="fill:#e82727;fill-opacity:1;fill-rule:evenodd;stroke:none"
         d="m 356.29159,277.34578 c 101.90407,10.95766 157.52029,38.13916 242.58024,65.99752 44.23668,14.48814 81.70985,44.97165 37.71205,118.00416 L 514.67273,663.70915 c -26.57272,44.4782 -101.60738,53.27536 -148.98057,40.51022 L 105.06389,608.62504 C 57.690685,595.85989 10.056423,532.76732 38.005683,488.43916 77.456323,425.86955 142.58282,362.61998 204.8917,308.70595 242.77868,275.92351 307.95995,272.14872 356.29159,277.34578 Z"
         id="rect5076"
         sodipodi:nodetypes="csscccsss"
         inkscape:connector-curvature="0" />
      <path
         style="fill:#c21919;fill-opacity:1;fill-rule:evenodd;stroke:none"
         d="M 378.09776,895.65873 C 292.09006,879.86864 234.87298,848.76552 167.60824,819.45379 130.50025,803.28333 99.846206,765.1163 91.392679,735.07786 L 59.22956,643.3458 c -15.464956,-44.10744 10.838523,-42.86698 57.52795,-24.28067 l 255.49524,92.19092 c 39.81769,11.88658 73.95519,39.68794 74.00068,86.75778 0.021,21.57183 -0.33713,37.3604 -3.67005,66.58294 -2.20656,19.34641 -22.12198,38.83958 -64.48562,31.06196 z"
         id="path6555"
         sodipodi:nodetypes="cscsccsss"
         inkscape:connector-curvature="0" />
      <path
         style="fill:#c21919;fill-opacity:1;fill-rule:evenodd;stroke:none"
         d="m 571.45743,763.76513 c -11.75437,23.69567 -24.29658,59.80446 -40.42724,88.59415 -22.68051,40.47979 -68.43123,47.51628 -66.27858,19.38717 l 5.14728,-67.25993 c 3.59175,-46.93388 29.52842,-99.21724 44.45972,-123.12547 40.59669,-65.00397 90.44208,-137.32485 127.10437,-194.68339 14.43154,-22.57815 17.50799,3.63414 12.39758,21.3358 l -44.76555,155.06078 c -8.46434,29.31914 -27.60488,80.46593 -37.63758,100.69089 z"
         id="path7283"
         sodipodi:nodetypes="sssssssss"
         inkscape:connector-curvature="0" />
      <path
         style="fill:#ecc9c0;fill-opacity:1;fill-rule:evenodd;stroke:none"
         d="M 17.460938 58.476562 C 15.801082 58.433281 14.442695 59.284806 14.519531 60.917969 A 4.7374275 2.7914934 33.31181 0 0 14.513672 60.976562 A 4.7374275 2.7914934 33.31181 0 0 18.332031 65.53125 A 4.7374275 2.7914934 33.31181 0 0 22.925781 64.740234 L 22.931641 64.345703 C 22.943199 64.22026 22.94451 64.090425 22.9375 63.955078 L 22.941406 63.621094 A 4.7374275 2.7914934 33.31181 0 0 22.826172 63.228516 C 22.440418 61.645991 21.157735 59.788344 19.763672 59.080078 C 19.004808 58.694532 18.20267 58.495903 17.460938 58.476562 z M 78.724609 65.304688 C 78.650974 65.310874 78.572359 65.331893 78.490234 65.363281 C 78.484759 65.365374 78.480122 65.364978 78.474609 65.367188 A 1.315357 3.6045201 18.430281 0 0 78.458984 65.369141 A 1.315357 3.6045201 18.430281 0 0 76.25 68.908203 A 1.315357 3.6045201 18.430281 0 0 76.605469 72.226562 L 76.796875 72.169922 C 76.855248 72.159761 76.91559 72.141751 76.978516 72.117188 L 77.142578 72.068359 A 1.315357 3.6045201 18.430281 0 0 77.335938 71.919922 C 78.097489 71.39119 78.994663 70.154214 79.341797 69.007812 C 79.909951 67.131496 79.667143 65.225496 78.724609 65.304688 z M 51.03125 71.150391 C 49.371428 71.10711 48.013068 71.956747 48.089844 73.589844 A 4.7374275 2.7914934 33.31181 0 0 48.083984 73.648438 A 4.7374275 2.7914934 33.31181 0 0 51.902344 78.205078 A 4.7374275 2.7914934 33.31181 0 0 56.496094 77.412109 L 56.501953 77.013672 C 56.513086 76.89022 56.51462 76.761921 56.507812 76.628906 L 56.511719 76.294922 A 4.7374275 2.7914934 33.31181 0 0 56.396484 75.900391 C 56.01073 74.317866 54.728048 72.460219 53.333984 71.751953 C 52.575121 71.366407 51.772982 71.169732 51.03125 71.150391 z M 22.976562 76.705078 C 21.316741 76.661798 19.95838 77.511434 20.035156 79.144531 A 4.7374275 2.7914934 33.31181 0 0 20.029297 79.203125 A 4.7374275 2.7914934 33.31181 0 0 23.845703 83.759766 A 4.7374275 2.7914934 33.31181 0 0 28.441406 82.966797 L 28.447266 82.568359 C 28.458398 82.444907 28.459933 82.316608 28.453125 82.183594 L 28.457031 81.849609 A 4.7374275 2.7914934 33.31181 0 0 28.341797 81.455078 C 27.956043 79.872553 26.671407 78.014906 25.277344 77.306641 C 24.51848 76.921094 23.718295 76.724419 22.976562 76.705078 z M 52.705078 87.423828 C 51.046609 87.380583 49.687348 88.230838 49.761719 89.861328 A 4.7374275 2.7914934 33.31181 0 0 49.755859 89.921875 A 4.7374275 2.7914934 33.31181 0 0 53.574219 94.478516 A 4.7374275 2.7914934 33.31181 0 0 58.169922 93.685547 L 58.175781 93.277344 C 58.185448 93.163991 58.185077 93.047173 58.179688 92.925781 L 58.185547 92.568359 A 4.7374275 2.7914934 33.31181 0 0 58.068359 92.177734 C 57.683093 90.594862 56.400396 88.733897 55.005859 88.025391 C 54.246996 87.639844 53.44681 87.443169 52.705078 87.423828 z "
         transform="matrix(6.9900252,0,0,6.7695686,4.6854489,246.46716)"
         id="path1340" />
      <path
         style="fill:#f2dbd4;fill-opacity:1;fill-rule:evenodd;stroke:none"
         d="M 44.533203 8.71875 C 43.898194 8.7392621 43.300505 8.830723 42.78125 9.0058594 C 39.39163 10.149125 37.622378 13.481699 40.105469 15.521484 A 3.6703862 6.2181117 80.133398 0 0 40.167969 15.587891 A 3.6703862 6.2181117 80.133398 0 0 48.099609 16.181641 A 3.6703862 6.2181117 80.133398 0 0 51.269531 11.205078 L 50.867188 10.835938 C 50.754912 10.717837 50.630029 10.604811 50.494141 10.494141 L 50.148438 10.177734 A 3.6703862 6.2181117 80.133398 0 0 49.640625 9.9257812 C 48.222619 9.1414379 46.250352 8.6632827 44.533203 8.71875 z M 78.328125 19.910156 C 77.693116 19.930668 77.093474 20.024082 76.574219 20.199219 C 73.182591 21.343161 71.412734 24.679293 73.902344 26.71875 A 3.6703862 6.2181117 80.133398 0 0 73.960938 26.78125 A 3.6703862 6.2181117 80.133398 0 0 81.894531 27.373047 A 3.6703862 6.2181117 80.133398 0 0 85.064453 22.398438 L 84.658203 22.027344 C 84.547265 21.910814 84.424961 21.798746 84.291016 21.689453 L 83.941406 21.371094 A 3.6703862 6.2181117 80.133398 0 0 83.4375 21.121094 C 82.019207 20.335307 80.047029 19.854632 78.328125 19.910156 z M 50.273438 28.46875 C 49.638428 28.489262 49.038787 28.582676 48.519531 28.757812 C 45.127373 29.901934 43.356322 33.239927 45.847656 35.279297 A 3.6703862 6.2181117 80.133398 0 0 45.90625 35.339844 A 3.6703862 6.2181117 80.133398 0 0 53.839844 35.931641 A 3.6703862 6.2181117 80.133398 0 0 57.009766 30.957031 L 56.603516 30.585938 C 56.492577 30.469408 56.370274 30.35734 56.236328 30.248047 L 55.886719 29.929688 A 3.6703862 6.2181117 80.133398 0 0 55.382812 29.679688 C 53.964519 28.8939 51.992342 28.413226 50.273438 28.46875 z M 17.822266 35.53125 C 17.187256 35.551762 16.589568 35.645176 16.070312 35.820312 C 12.663364 36.969423 10.886164 40.332329 13.425781 42.369141 A 3.6703862 6.2181117 80.133398 0 0 13.457031 42.402344 A 3.6703862 6.2181117 80.133398 0 0 21.388672 42.994141 A 3.6703862 6.2181117 80.133398 0 0 24.558594 38.019531 L 24.152344 37.648438 C 24.041405 37.531908 23.919102 37.41984 23.785156 37.310547 L 23.435547 36.992188 A 3.6703862 6.2181117 80.133398 0 0 22.9375 36.744141 C 21.518916 35.956868 19.542975 35.475668 17.822266 35.53125 z M 57.287109 51.511719 C 56.6521 51.532231 56.052459 51.625645 55.533203 51.800781 C 52.141045 52.944903 50.369994 56.282896 52.861328 58.322266 A 3.6703862 6.2181117 80.133398 0 0 52.919922 58.382812 A 3.6703862 6.2181117 80.133398 0 0 60.853516 58.974609 A 3.6703862 6.2181117 80.133398 0 0 64.023438 54 L 63.615234 53.626953 C 63.504877 53.511251 63.383047 53.399576 63.25 53.291016 L 62.900391 52.972656 A 3.6703862 6.2181117 80.133398 0 0 62.396484 52.722656 C 60.978191 51.936869 59.006014 51.456195 57.287109 51.511719 z "
         transform="matrix(6.9900252,0,0,6.7695686,4.6854489,246.46716)"
         id="path8739" />
    </g>
  </g>
</svg>

<!--Created with Inkscape (http://www.inkscape.org/)--><svg xmlns:dc="http://purl.org/dc/elements/1.1/" xmlns:cc="http://creativecommons.org/ns#" xmlns:rdf="http://www.w3.org/1999/02/22-rdf-syntax-ns#" xmlns="http://www.w3.org/2000/svg" xmlns:sodipodi="http://sodipodi.sourceforge.net/DTD/sodipodi-0.dtd" xmlns:inkscape="http://www.inkscape.org/namespaces/inkscape" width="97.366165" height="98.644226" sodipodi:version="0.32" inkscape:version="0.91 r13725" sodipodi:docname="dice5.svg" inkscape:export-filename="/home/franck/Gcompris/gartoon/level5.png" inkscape:export-xdpi="8.5762272" inkscape:export-ydpi="8.5762272" inkscape:output_extension="org.inkscape.output.svg.inkscape" version="1.0"><sodipodi:namedview inkscape:document-units="mm" pagecolor="#ffffff" bordercolor="#666666" borderopacity="1.0" inkscape:pageopacity="0.0" inkscape:pageshadow="2" inkscape:zoom="1.7949557" inkscape:cx="50.780948" inkscape:cy="54.391011" inkscape:current-layer="g16467" inkscape:window-width="936" inkscape:window-height="1053" inkscape:window-x="940" inkscape:window-y="0" showgrid="false" units="mm" fit-margin-top="0" fit-margin-left="0" fit-margin-right="0" fit-margin-bottom="0" inkscape:window-maximized="0"/><metadata><rdf:RDF><cc:Work><dc:format>image/svg+xml</dc:format><dc:type rdf:resource="http://purl.org/dc/dcmitype/StillImage"/><dc:title/><dc:date>2015</dc:date><dc:creator><cc:Agent><dc:title>Timothée Giet</dc:title></cc:Agent></dc:creator><cc:license rdf:resource="http://creativecommons.org/licenses/by-sa/4.0/"/></cc:Work><cc:License rdf:about="http://creativecommons.org/licenses/by-sa/4.0/"><cc:permits rdf:resource="http://creativecommons.org/ns#Reproduction"/><cc:permits rdf:resource="http://creativecommons.org/ns#Distribution"/><cc:requires rdf:resource="http://creativecommons.org/ns#Notice"/><cc:requires rdf:resource="http://creativecommons.org/ns#Attribution"/><cc:permits rdf:resource="http://creativecommons.org/ns#DerivativeWorks"/><cc:requires rdf:resource="http://creativecommons.org/ns#ShareAlike"/></cc:License></rdf:RDF></metadata><g inkscape:label="Layer 1" inkscape:groupmode="layer"><path style="fill:#991919;fill-opacity:1;fill-rule:evenodd;stroke:none;stroke-width:.14504871pt;stroke-linecap:butt;stroke-linejoin:miter;stroke-opacity:1" d="M48.449 426.265s81.76-99.793 158.394-144.965c47.56-28.035 111.498-39.754 167.223-31.754 100.518 14.43 242.39 69.24 242.39 69.24 39.871 11.046 73.049 34.127 67.576 90.62-9.377 96.789-28.775 168.667-56.614 257.897-11.86 38.01-27.638 78.674-39.114 107.006-13.397 33.072-30.892 62.437-41.874 85.897-16.868 36.032-64.417 53.885-106.335 53.418-61.905-.69-181.487-32.023-275.98-77.61-42.585-20.544-72.371-45.963-84.84-79.59C50.952 680.03 5.383 615.863 5.32 532.243c-.034-45.69 17.974-72.844 43.13-105.98z" sodipodi:nodetypes="csscssssssssc" inkscape:connector-curvature="0" transform="matrix(.14306 0 0 .14772 -.67 -36.408)"/><path style="fill:#e82727;fill-opacity:1;fill-rule:evenodd;stroke:none" d="M356.292 277.346c101.904 10.957 157.52 38.139 242.58 65.997 44.237 14.488 81.71 44.972 37.712 118.004L514.673 663.71c-26.573 44.478-101.608 53.276-148.98 40.51l-260.63-95.594c-47.372-12.765-95.007-75.858-67.057-120.186 39.45-62.57 104.577-125.819 166.886-179.733 37.887-32.782 103.068-36.557 151.4-31.36z" sodipodi:nodetypes="csscccsss" inkscape:connector-curvature="0" transform="matrix(.14306 0 0 .14772 -.67 -36.408)"/><path style="fill:#c21919;fill-opacity:1;fill-rule:evenodd;stroke:none" d="M378.098 895.659c-86.008-15.79-143.225-46.893-210.49-76.205-37.108-16.17-67.762-54.338-76.215-84.376L59.23 643.346c-15.465-44.108 10.838-42.867 57.528-24.28l255.495 92.19c39.817 11.887 73.955 39.688 74 86.758.021 21.572-.337 37.36-3.67 66.583-2.206 19.346-22.122 38.84-64.485 31.062z" sodipodi:nodetypes="cscsccsss" inkscape:connector-curvature="0" transform="matrix(.14306 0 0 .14772 -.67 -36.408)"/><path style="fill:#c21919;fill-opacity:1;fill-rule:evenodd;stroke:none" d="M571.457 763.765c-11.754 23.696-24.296 59.805-40.427 88.594-22.68 40.48-68.431 47.517-66.278 19.387l5.147-67.26c3.592-46.933 29.528-99.217 44.46-123.125 40.596-65.004 90.442-137.325 127.104-194.683 14.432-22.578 17.508 3.634 12.398 21.335l-44.766 155.061c-8.464 29.32-27.605 80.466-37.638 100.691z" sodipodi:nodetypes="sssssssss" inkscape:connector-curvature="0" transform="matrix(.14306 0 0 .14772 -.67 -36.408)"/><path style="fill:#ecc9c0;fill-opacity:1;fill-rule:evenodd;stroke:none" d="M17.46 58.477c-1.659-.044-3.017.808-2.94 2.441a4.737 2.791 33.312 0 0-.006.059 4.737 2.791 33.312 0 0 3.818 4.554 4.737 2.791 33.312 0 0 4.594-.79l.006-.395c.011-.126.013-.256.006-.39l.003-.335a4.737 2.791 33.312 0 0-.115-.392c-.386-1.583-1.668-3.44-3.062-4.149a5.458 5.458 0 0 0-2.303-.603zm61.265 6.828a.871.871 0 0 0-.235.058l-.015.004a1.315 3.605 18.43 0 0-.016.002 1.315 3.605 18.43 0 0-2.209 3.54 1.315 3.605 18.43 0 0 .355 3.318l.192-.057a.95.95 0 0 0 .182-.053l.164-.049a1.315 3.605 18.43 0 0 .193-.148c.761-.529 1.659-1.766 2.006-2.912.568-1.877.325-3.783-.617-3.703zM51.03 71.15c-1.66-.043-3.018.807-2.941 2.44a4.737 2.791 33.312 0 0-.006.058 4.737 2.791 33.312 0 0 3.818 4.557 4.737 2.791 33.312 0 0 4.594-.793l.006-.398c.011-.124.013-.252.006-.385l.004-.334a4.737 2.791 33.312 0 0-.116-.395c-.385-1.582-1.668-3.44-3.062-4.148a5.454 5.454 0 0 0-2.303-.602zm-28.054 5.555c-1.66-.043-3.019.806-2.942 2.44a4.737 2.791 33.312 0 0-.006.058 4.737 2.791 33.312 0 0 3.817 4.557 4.737 2.791 33.312 0 0 4.595-.793l.006-.399c.011-.123.013-.251.006-.384l.004-.334a4.737 2.791 33.312 0 0-.115-.395c-.386-1.582-1.67-3.44-3.065-4.148a5.446 5.446 0 0 0-2.3-.602zm29.728 10.719c-1.658-.043-3.018.807-2.943 2.437a4.737 2.791 33.312 0 0-.006.06 4.737 2.791 33.312 0 0 3.818 4.558 4.737 2.791 33.312 0 0 4.596-.793l.006-.409c.01-.113.01-.23.004-.351l.006-.358a4.737 2.791 33.312 0 0-.118-.39c-.385-1.583-1.668-3.444-3.062-4.153a5.446 5.446 0 0 0-2.3-.601z"/><path style="fill:#f2dbd4;fill-opacity:1;fill-rule:evenodd;stroke:none" d="M44.533 8.719c-.635.02-1.232.112-1.752.287-3.39 1.143-5.159 4.476-2.676 6.515a3.67 6.218 80.133 0 0 .063.067 3.67 6.218 80.133 0 0 7.932.594 3.67 6.218 80.133 0 0 3.17-4.977l-.403-.37a3.984 3.984 0 0 0-.373-.34l-.346-.317a3.67 6.218 80.133 0 0-.507-.252c-1.418-.785-3.39-1.263-5.108-1.207zM78.328 19.91c-.635.02-1.235.114-1.754.29-3.391 1.143-5.161 4.48-2.672 6.519a3.67 6.218 80.133 0 0 .059.062 3.67 6.218 80.133 0 0 7.934.592 3.67 6.218 80.133 0 0 3.17-4.975l-.407-.37a3.973 3.973 0 0 0-.367-.339l-.35-.318a3.67 6.218 80.133 0 0-.504-.25c-1.418-.786-3.39-1.266-5.109-1.21zM50.273 28.47c-.635.02-1.234.114-1.753.289-3.393 1.144-5.164 4.482-2.672 6.521a3.67 6.218 80.133 0 0 .058.06 3.67 6.218 80.133 0 0 7.934.593 3.67 6.218 80.133 0 0 3.17-4.975l-.406-.371a3.973 3.973 0 0 0-.368-.338l-.35-.318a3.67 6.218 80.133 0 0-.503-.25c-1.418-.786-3.39-1.267-5.11-1.211zm-32.45 7.062c-.636.02-1.233.114-1.753.29-3.407 1.148-5.184 4.511-2.644 6.548a3.67 6.218 80.133 0 0 .031.033 3.67 6.218 80.133 0 0 7.932.592 3.67 6.218 80.133 0 0 3.17-4.974l-.407-.372a3.973 3.973 0 0 0-.367-.337l-.35-.319a3.67 6.218 80.133 0 0-.497-.248c-1.42-.787-3.395-1.268-5.116-1.213zm39.464 15.98c-.635.021-1.235.115-1.754.29-3.392 1.144-5.163 4.482-2.672 6.521a3.67 6.218 80.133 0 0 .059.06 3.67 6.218 80.133 0 0 7.934.593A3.67 6.218 80.133 0 0 64.024 54l-.409-.373a3.984 3.984 0 0 0-.365-.336l-.35-.318a3.67 6.218 80.133 0 0-.504-.25c-1.418-.786-3.39-1.267-5.109-1.211z"/></g></svg>
